X:117
T: Es ist sich nichts Schneres zu gren (1-43), S.110
N: K1091
O: Luxemburg
S: KINTZELE, Guillaume: An der Ucht, Bd. 1, Luxemburg 1926]
N: in der Quelle mit einer 2. Stimme versehen
R: Untreue]
M: 6/8
L: 1/16
K: F
C2 | F2F2F2A2F2AA | c4c2A4
c2 | c2d2c2c2B2B2 | A6
c6 | A2c2c2d2c2B2 | A6G6 |
B6B2c2d2 | c4B2A4
c2 | c2c2c2c2B2B2 | A6
c6 | A2c2c2d2c2B2 | A6G6 |
B6B2c2d2 | c4B2A4
c2 | c2c2c2c2B2B2 | A6z4

@@@ Tune index: 8171
